src/main/resources/icons/JavaUltimateIcons/icons/javaee/jakartaEE.svg

<svg width="16" height="16" viewBox="0 0 16 16" fill="none" xmlns="http://www.w3.org/2000/svg">
  <path d="M10.91 2.61761L3.11087 11.2063L8.4066 12.5736C11.2721 9.09189 11.2695 4.48556 10.91 2.61761Z" fill="#F5B251"/>
  <path d="M14.6459 1L4.88253 11.6494L11.5263 13.3824C16.0744 8.0674 15.098 3.34126 14.6459 1Z" fill="#FFAD0A"/>
  <path fill-rule="evenodd" clip-rule="evenodd" d="M8.4107 12.5686C10.4236 10.1197 11.0191 7.11568 11.0702 4.89949L4.87049 11.6606L7.05163 12.2238L8.4107 12.5686Z" fill="#FF7A00"/>
  <path d="M10.5442 13.4787L0.8 11.033C0.8 11.033 3.47675 12.5928 4.78625 15C6.12655 13.6443 9.18973 13.4402 10.5442 13.4787Z" fill="#17268D"/>
</svg>

<svg width="16" height="16" viewBox="0 0 16 16" fill="none" xmlns="http://www.w3.org/2000/svg"><rect id="frame" width="16" height="16" fill="none"/><path d="M10.91 2.618l-7.8 8.588 5.297 1.368c2.865-3.482 2.863-8.088 2.503-9.956z" fill="#F5B251"/><path d="M14.646 1L4.883 11.65l6.643 1.732C16.074 8.067 15.098 3.342 14.646 1z" fill="#FFAD0A"/><path fill-rule="evenodd" clip-rule="evenodd" d="M8.41 12.569c2.014-2.45 2.61-5.453 2.66-7.67l-6.2 6.762 2.182.563 1.359.345z" fill="#FF7A00"/><path d="M10.544 13.479L.8 11.033S3.477 12.593 4.786 15c1.34-1.356 4.404-1.56 5.758-1.521z" fill="#17268D"/></svg>
